static/assets/images/networks/core.svg

<svg width="256" height="256" viewBox="0 0 256 256" fill="none" xmlns="http://www.w3.org/2000/svg">
<path d="M128 256C198.692 256 256 198.692 256 128C256 57.3075 198.692 0 128 0C57.3075 0 0 57.3075 0 128C0 198.692 57.3075 256 128 256Z" fill="black"/>
<path fill-rule="evenodd" clip-rule="evenodd" d="M127.974 52.6738L62.8761 90.3492V165.648L127.974 203.272L193.176 165.597V90.3492L127.974 52.6738ZM130.764 33.7329C129.932 33.2528 128.987 33 128.026 33C127.065 33 126.12 33.2528 125.288 33.7329L47.7899 78.4789C46.9462 78.9533 46.2435 79.6427 45.7534 80.4768C45.2634 81.3109 45.0034 82.2599 45 83.227V172.77C45 174.68 46.0333 176.486 47.7383 177.467L125.236 222.265C126.941 223.245 129.059 223.245 130.764 222.265L208.262 177.467C209.967 176.486 211 174.68 211 172.77V83.227C211 81.2658 209.967 79.4595 208.262 78.4789L130.764 33.7329Z" fill="#FF9211"/>
<path d="M127.974 79.9756L86.4354 103.974V151.972L127.768 175.867C127.923 175.97 128.026 176.125 128.026 176.332V184.589C128.026 184.685 127.999 184.779 127.949 184.861C127.898 184.942 127.826 185.008 127.74 185.051C127.654 185.094 127.558 185.112 127.463 185.103C127.367 185.095 127.276 185.06 127.199 185.002L80.2873 157.958C79.6611 157.597 79.1407 157.078 78.778 156.453C78.4154 155.829 78.2232 155.12 78.2207 154.397V101.6C78.2232 100.878 78.4154 100.169 78.778 99.544C79.1407 98.9192 79.6611 98.4002 80.2873 98.0391L125.908 71.7696C126.536 71.4072 127.249 71.2164 127.974 71.2164C128.7 71.2164 129.412 71.4072 130.041 71.7696L177.108 98.8132C177.211 98.8472 177.301 98.9129 177.365 99.0009C177.429 99.0889 177.463 99.1949 177.463 99.3035C177.463 99.4122 177.429 99.5181 177.365 99.6062C177.301 99.6942 177.211 99.7599 177.108 99.7938C174.369 101.445 172.923 102.168 169.823 103.923C169.744 103.968 169.655 103.992 169.565 103.992C169.474 103.992 169.385 103.968 169.306 103.923L127.974 80.0272V79.9756Z" fill="#FF9211"/>
<path d="M134.846 129.005C134.846 128.799 134.949 128.592 135.156 128.489L176.488 106.503C176.571 106.436 176.674 106.397 176.78 106.391C176.887 106.385 176.993 106.412 177.084 106.469C177.175 106.525 177.246 106.609 177.287 106.707C177.328 106.806 177.338 106.915 177.314 107.019V160.539C177.314 160.745 177.211 160.9 177.004 161.055L135.672 185.002C135.592 185.063 135.496 185.099 135.395 185.106C135.294 185.113 135.194 185.091 135.106 185.041C135.018 184.992 134.947 184.918 134.901 184.828C134.854 184.739 134.835 184.638 134.846 184.538V129.005Z" fill="#FF9211"/>
</svg>

<svg xmlns="http://www.w3.org/2000/svg" fill="none" viewBox="0 0 256 256"><path fill="#000" d="M128 256c70.692 0 128-57.308 128-128S198.692 0 128 0 0 57.308 0 128s57.308 128 128 128"/><path fill="#FF9211" fill-rule="evenodd" d="M127.974 52.674 62.876 90.349v75.299l65.098 37.624 65.202-37.675V90.349zm2.79-18.941a5.48 5.48 0 0 0-5.476 0L47.79 78.479A5.47 5.47 0 0 0 45 83.227v89.543a5.44 5.44 0 0 0 2.738 4.697l77.498 44.798c1.705.98 3.823.98 5.528 0l77.498-44.798A5.44 5.44 0 0 0 211 172.77V83.227a5.46 5.46 0 0 0-2.738-4.748z" clip-rule="evenodd"/><path fill="#FF9211" d="m127.974 79.976-41.539 23.998v47.998l41.333 23.895a.54.54 0 0 1 .258.465v8.257c0 .096-.027.19-.077.272a.52.52 0 0 1-.486.242.5.5 0 0 1-.264-.101l-46.912-27.044a4.13 4.13 0 0 1-2.066-3.561V101.6a4.13 4.13 0 0 1 2.066-3.56l45.621-26.27a4.14 4.14 0 0 1 4.133 0l47.067 27.043a.52.52 0 0 1 .355.49.51.51 0 0 1-.355.49c-2.739 1.652-4.185 2.375-7.285 4.13a.52.52 0 0 1-.517 0l-41.332-23.896z"/><path fill="#FF9211" d="M134.846 129.005c0-.206.103-.413.31-.516l41.332-21.986a.51.51 0 0 1 .596-.034.51.51 0 0 1 .23.55v53.52c0 .206-.103.361-.31.516l-41.332 23.947a.515.515 0 0 1-.771-.174.5.5 0 0 1-.055-.29z"/></svg>
